X:1
T:The School Of Velocity op.299 no.2 Czerny 
T:Carl Czerny
%%score { 1 | 2 }
L:1/8
Q:1/4=144
M:4/4
K:C
V:1 treble nm="Piano"
V:2 bass 
V:1
"^Molto Allegro" [Ec]4 [Ec]2 [Ec]2 | ([Fc]4 B/c/B/A/ B/c/d/e/ | f/) z/ z z2 [Fd]2 [Fd]2 | %3
 ([Gd]4 c/d/c/B/ c/d/e/f/ | g/) z/ z z2 [Ge]2 [Ge]2 | ([Ae]4 d/e/d/^c/ d/e/f/g/ | %6
 a/) z/ z z2 [Af]2 [Af]2 | [Bf]4 f'/e'/d'/c'/ b/a/g/f/ | [ee']4 [fb]4 | [gc']4 [fa]4 | B4 c4 | %11
 g2- gf e4 | z/ d/e/f/ g/a/b/^c'/ d'/f/g/a/ b/c'/d'/e'/ | %13
!8va(! f'/a/b/^c'/ d'/e'/f'/g'/ a'/g'/f'/e'/ g'/f'/e'/d'/ | [e'g']8- | %15
 [e'g']2 [c'e'g']2 [c'e'g']2 [c'e'g']2 | [c'e'g'] z z2 [e'g'c''] z z2 | [g'c''e'']!8va)! z z2 z4 | %18
 z8 | z2 [Gceg] z z2 [DFGB] z | [EGc]2 z2 [cegc']2 z2 |] %21
V:2
 z/ C,,/D,,/E,,/ F,,/G,,/A,,/B,,/ C,/D,/E,/F,/ G,/A,/B,/C/ | z/ D,/E,/F,/ G,/A,/B,/C/ D/ z/ z z2 | %2
 z/ D,,/E,,/F,,/ G,,/A,,/B,,/C,/ D,/E,/F,/G,/ A,/B,/C/D/ | z/ E,/F,/G,/ A,/B,/C/D/ E z z2 | %4
 z/ E,,/F,,/G,,/ A,,/B,,/C,/D,/ E,/F,/G,/A,/ B,/C/D/E/ | z/ F,/G,/A,/ B,/C/D/E/ F z z2 | %6
 z/ F,,/G,,/A,,/ B,,/C,/D,/E,/ F,/G,/A,/B,/ C/D/E/F/ | z/ G,/A,/B,/ C/D/E/F/ G/ z/ z z2 | %8
 C,/D,/E,/F,/ G,/A,/B,/C/ D,/E,/F,/G,/ A,/B,/C/D/ | E,/F,/G,/A,/ B,/C/D/E/ F,/G,/A,/B,/ C/D/E/F/ | %10
[K:] G,/A,/B,/C/ D/E/F/G/ A,/B,/C/D/ E/F/G/A/ | B,/C/D/E/ F/G/A/B/ C/D/E/F/ G/A/B/c/ | %12
 [FA] z/ z z2 D/E/F/ G/A/B/^c/ | d/F/G/A/ B/^c/d/e/ f z z2 | z/ g/f/e/ d/c/B/A/ G/e/d/c/ B/A/G/F/ | %15
 E/c/B/A/ G/F/E/D/ C/G/F/E/ D/C/B,/A,/ |[K:bass] G,/E/D/C/ B,/A,/G,/F,/ E,/C/B,/A,/ G,/F,/E,/D,/ | %17
 C,/G,/F,/E,/ D,/C,/B,,/A,,/ G,,/E,/D,/C,/ B,,/A,,/G,,/F,,/ | %18
 E,,/C,/B,,/A,,/ G,,/F,,/E,,/D,,/ C,,/G,,/F,,/E,,/ D,,/C,,/B,,,/A,,,/ | G,,, z z2 [G,,G,] z z2 | %20
 [C,G,C]2 z2 [C,,E,,G,,C,]2 z2 |] %21

